X:1
T: The Bonnie Lass O' Bonaccord, Variation majore
C:J. Scott Skinner
R:Strathspey
Q:128
K:A
M:4/4
L:1/16
E4|A2G2 A2B2 c2B2 A2G2|A2A,2 B,2C2 D2E2 F2G2|A2G2 A2f2 e2c2 B2A2|B8-B6c2|A2G2 A2B2 c2B2 A2G2|A2A,2 B,2C2 D2E2 F2=G2|F2D2 F2A2 G2E2 G2B2 A8-A4E4|
A2G2 A2B2 c2B2 A2G2|A2A,2 B,2C2 D2E2 F2G2|A2G2 A2f2 e2c2 B2A2|B8-B6c2|A2G2 A2B2 c2B2 A2G2|A2A,2 B,2C2 D2E2 F2=G2|F2D2 F2A2 G2E2 G2B2|A8-A4((3efg)|
a2g2 f2e2 d2c2 B2A2|e2A2 c2A2 a2G2 A2B2|c2A2 e2A2 a2e2 d2c2|B8-B4((3efg)|a2g2 f2e2 d2c2 B2A2|e2A2 c2A2 a2G2 A2=G2|F2D2 F2A2 G2E2 G2B2|A8-A4((3efg)|
a2g2 f2e2 d2c2 B2A2|c2A2 e2A2 a4 g2f2|e2G2 A2a2 f2e2 d2c2|B8-B6c2|A,2C2 E2A2 c2e2 a2g2|a2e2 c2A2 G2A2 E2=G2|F2D2 F2A2 G2f2 e2G2|A8-A4||
